X: 8
T: No_107_Clayoquot_War_Song_(b).krn
N: Derived from No_107_Clayoquot_War_Song_(b).krn
%%abc-version 2.0
%%abcx-abcm2ps-target-version 5.9.1 (29 Sep 2008)
%%abc-creator hum2abc beta
%%abcx-conversion-date 2019/03/15 08:36:13
%%humdrum-veritas 376960046
%%humdrum-veritas-data 732173065
%%linebreak <none>
%%barnumbers 0
L: 1/8
M: 2/4
K: D clef=bass
[K:clef=bass][M:2/4]B,4 | 
B,2B,2 ||  
[M:3/4]A,F, F, zA,2 | 
A,F, E, zA,2 ||  
[M:2/4]A,F,-F,2 | 
F,2z2 ||  
[M:3/4]F, z F, zA,2 ||  
[M:2/4]F,4 | 
F,2A,2 ||  
[M:3/4]A,F, F, zA,2 ||  
[M:2/4]F,4 | 
A, zz2 |]  



